P3
8 8
255
7 7 8   7 7 8   10 12 9   18 23 11   28 37 13   18 23 11   10 12 9   7 7 8
7 7 8   10 11 9   20 27 11  50 68 16   92 126 24  50 68 16   20 27 11  10 11 9
9 10 9  17 22 10  58 79 17  120 164 31  178 229 55  120 164 31  58 79 17  17 22 10
11 13 9  29 39 12  92 125 23  184 236 57  199 255 74  184 236 57  92 125 23  29 39 12
11 13 9  29 39 12  92 125 23  184 236 57  199 255 74  184 236 57  92 125 23  29 39 12
9 10 9  17 22 10  58 79 17  120 164 31  178 229 55  120 164 31  58 79 17  17 22 10
7 7 8   10 11 9   20 27 11  50 68 16   92 126 24  50 68 16   20 27 11  10 11 9
7 7 8   7 7 8   10 12 9   18 23 11   28 37 13   18 23 11   10 12 9   7 7 8
